X: 13466
T: Flora Macdonald
R: reel
M: 4/4
K: Edorian
F|E2 EF BFEF|E2 EF dFDF|E2 EF EFGA|(B/c/d) AG FDD:|
F|E(ee)d eEEF|E(ee)c dDAF|Eeed BcdB|(e/f/g) Tfe dDD:|

